X:68
T:Wind That Shakes The Barley
N:Reel   Allans #68  pg17
N:Trad/Anon
N:CONVERTED FROM NOTEWORTHY COMPOSER  (WWW.NOTEWORTHYSOFTWARE.COM) BY
N:ABC2NWC (HTTP://MEMBERS.AOL.COM/ABACUSMUSIC/), WITH
Z: (INTO NWC) VINCE BRENNAN 2002   (WWW.SOSYOURMOM.COM)
I:abc2nwc
M:2/2
L:1/8
K:D
B|:A2(AB) AFED|B2{c}BA BcdB|A2(AB) AFED|gfed BcdB|
A2(AB) AFED|B2{c}BA BcdB|A2(AB) AFED|gfed Bcde||
f2fd g2ge|f2fd Bcde|f2fd g2fg|afed Bcde|
f2fd g2ge|f2fd Bcde|defg afbf|[1gfed BcdB:|[2"^(Last Time)"eABcd2|]
